src/app/logo.svg

<?xml version="1.0" encoding="UTF-8"?>
<!-- Created with Inkscape (http://www.inkscape.org/) -->
<svg version="1.1" viewBox="0 0 1024 1024" xmlns="http://www.w3.org/2000/svg">
	<g>
		<path d="m192 0h-192v1024h1024v-832h-580v252h384v384h-636z" fill="#eeac25"/>
		<path d="m448 576h256v128h-384v-704h-192v896h768v-512h-448z" fill="#d84121"/>
		<path d="m256 0h768v192h-576v384h128l64-64h128v256h-512z" fill="#9a1728"/>
		<path d="m1024 128h-640v512h256v-128h-128v-256h512z" fill="#3f215f"/>
	</g>
</svg>

<?xml version="1.0" encoding="UTF-8" standalone="no"?>
<!-- Created with Inkscape (http://www.inkscape.org/) -->

<svg
   xmlns:dc="http://purl.org/dc/elements/1.1/"
   xmlns:cc="http://creativecommons.org/ns#"
   xmlns:rdf="http://www.w3.org/1999/02/22-rdf-syntax-ns#"
   xmlns:svg="http://www.w3.org/2000/svg"
   xmlns="http://www.w3.org/2000/svg"
   xmlns:sodipodi="http://sodipodi.sourceforge.net/DTD/sodipodi-0.dtd"
   xmlns:inkscape="http://www.inkscape.org/namespaces/inkscape"
   version="1.1"
   viewBox="0 0 1024 1024"
   id="svg14"
   sodipodi:docname="logo.svg"
   inkscape:version="0.92.3 (2405546, 2018-03-11)"
   inkscape:export-filename="/home/adroitwhiz/Projects/bismuth/src/app/favicon.png"
   inkscape:export-xdpi="1.5"
   inkscape:export-ydpi="1.5">
  <metadata
     id="metadata20">
    <rdf:RDF>
      <cc:Work
         rdf:about="">
        <dc:format>image/svg+xml</dc:format>
        <dc:type
           rdf:resource="http://purl.org/dc/dcmitype/StillImage" />
        <dc:title></dc:title>
      </cc:Work>
    </rdf:RDF>
  </metadata>
  <defs
     id="defs18" />
  <sodipodi:namedview
     pagecolor="#ffffff"
     bordercolor="#666666"
     borderopacity="1"
     objecttolerance="10"
     gridtolerance="10"
     guidetolerance="10"
     inkscape:pageopacity="0"
     inkscape:pageshadow="2"
     inkscape:window-width="1920"
     inkscape:window-height="997"
     id="namedview16"
     showgrid="true"
     inkscape:zoom="0.46093751"
     inkscape:cx="-163.17776"
     inkscape:cy="518.18712"
     inkscape:window-x="1440"
     inkscape:window-y="33"
     inkscape:window-maximized="1"
     inkscape:current-layer="svg14">
    <inkscape:grid
       empspacing="8"
       spacingx="8"
       spacingy="8"
       type="xygrid"
       id="grid827" />
  </sodipodi:namedview>
  <path
     sodipodi:nodetypes="ccccccccccc"
     style="fill:#eeb525"
     inkscape:connector-curvature="0"
     id="path2"
     d="M 192,0 H 0 V 1024 H 1024 V 192 H 444 V 444 H 828 V 828 H 192 Z" />
  <path
     style="fill:#e83458;fill-opacity:1"
     inkscape:connector-curvature="0"
     id="path4"
     d="M 448,576 H 704 V 704 H 320 V 0 H 128 V 896 H 896 V 384 H 448 Z" />
  <path
     style="fill:#9c1a78;fill-opacity:1"
     inkscape:connector-curvature="0"
     id="path6"
     d="m 256,0 h 192 v 576 h 128 l 64,-64 H 768 V 768 H 256 Z" />
  <path
     style="fill:#9c1a78;fill-opacity:1"
     inkscape:connector-curvature="0"
     id="path8"
     d="m 384,0 h 640 V 192 L 384,128 Z" />
  <path
     style="fill:#3c1c7b;fill-opacity:1"
     inkscape:connector-curvature="0"
     id="path10"
     d="M 1024,128 H 384 V 640 H 640 V 512 H 512 V 256 h 512 z" />
</svg>
